!!!OTL: Mojiao Shange,leng le tai
!!!ARE: Asia, China,ˇShaanxi, Nanzheng
!! I, 87
!!!SCT: C1412
!!!YEM: Copyright 1995, estate of Helmut Schaffrath.
**kern
*ICvox
*Ivox
!! Mixed meters:  3/4; 2/4
*M2/4
*k[]
*C:
{8.ee
16dd
8cc
4.dd
=1
8ee
16dd
16ee
8dd
8cc
=2
8a
4.a}
=3
{2dd
=4
8ee
16dd
16ee
8dd
8cc
=5
8a
4.a}
=6
{4a
4dd
=7
8a
8g
4dd
=8
8b-
16a
16b-
8a
8g
=9
8f
4.f}
=10
{8a
8cc
8a
8a
=11
4dd
4a
=12
8b-
16a
16b-
8a
8g
=13
8f
4.f}
=14
{8.ee
16dd
8dd
8cc
=15
8cc
4.dd
=16
8ee
8cc
8dd
8cc
=17
8cc
4.a}
=18
{2dd
=19
8ee
8cc
8dd
8cc
=20
8a
4.a}
=21
{8a
4dd
8dd
=22
4a
4dd
=23
8a
8cc
8a
8g
=24
8f
4.f}
=25
{8a
8cc
8a
8a
=26
4dd
4a
=27
8a
8cc
8a
8g
=28
8f
4.f}
==
!!!AGN: Shange. Duige
!! Zhuandiao: a YU - F GONG - a YU - F GONG
!!!ONB: ESAC (Essen Associative Code) Database: HUANG
!!!AMT: irregular
!!!AIN: vox
!!!EED: Helmut Schaffrath
!!!EEV: 1.0
*-
!!!OTL: Lang zai gaoshan han yi sheng
!!!ARE: Asia, China,ˇHunan, Changning
!! I, 560
!!!SCT: C1475
!!!YEM: Copyright 1995, estate of Helmut Schaffrath.
**kern
*ICvox
*Ivox
*M4/4
*k[f#c#g#]
*A:
{8bb
8eee
8eee
8bb
4eee
4eee
=1
16eee
16ccc#
8bb
8aa
8bb
2aa
=2
2.aa]
8bb
8r}
=3
{8bb
8eee
8eee
8bb
4aa
4bb
=4
8.fff#
16eee
8ddd#
[8eee
2eee]
=5
1eee]}
=6
{8bb
8eee
4bb
4aa
4ee
=7
2.aa
4r}
=8
{4aa
4bb
4eee
8eee
8eee
=9
8bb
8eee
4bb
16eee
16ccc#
8bb
4aa
=10
2.aa]
8bb
8r}
=11
{4aa
4bb
4eee
8eee
8bb
=12
8.ff#
16eee
8ddd#
[8eee
2eee]
=13
1eee]}
=14
{8bb
8eee
4bb
4aa
4ee
=15
1aa}
==
!!!AGN: Shange. NannÅ qing
!!!ONB: ESAC (Essen Associative Code) Database: HUANG
!!!AMT: simple quadruple
!!!AIN: vox
!!!EED: Helmut Schaffrath
!!!EEV: 1.0
*-
